content/releases/4-0/19_php83/php-8.3.svg

<svg fill="none" height="127" viewBox="0 0 451 127" width="451" xmlns="http://www.w3.org/2000/svg"><g fill="#fff"><path clip-rule="evenodd" d="m21.8 125.8h-21.000012l18.700012-96.1h40.3c12.1 0 21 3.2 26.5 9.5 5.6 6.4 7.2 15.2 5 26.7-.9 4.7-2.5 9-4.6 12.9-2.2 3.9-5 7.5-8.5 10.7-4.2 3.9-8.8 6.7-13.9 8.4s-11.6 2.5-19.6 2.5h-18zm45.9-76.6c-2.7-2.9-8-4.4-15.9-4.4h-14.3l-7.8 40.3h12.7c8.4 0 14.7-1.6 18.9-4.8 4.1-3.2 6.9-8.5 8.4-15.9 1.3-7.2.6-12.2-2-15.2z" fill-rule="evenodd"/><path d="m106.6 4.1h20.8l-5 25.6h18.5c11.7 0 19.7 2 24.1 6.1s5.8 10.7 4 19.8l-8.7 44.8h-21.1l8.3-42.6c.9-4.8.6-8.1-1-9.9s-5.1-2.6-10.4-2.6h-16.6l-10.7 55.1h-20.9z"/><path clip-rule="evenodd" d="m185.2 125.8h-21l18.7-96.1h40.4c12.1 0 21 3.2 26.5 9.5 5.6 6.4 7.2 15.2 5 26.7-.9 4.7-2.5 9-4.6 12.9-2.2 3.9-5 7.5-8.5 10.7-4.2 3.9-8.8 6.7-13.9 8.4s-11.6 2.5-19.6 2.5h-18zm46-76.6c-2.7-2.9-8-4.4-15.9-4.4h-14.4l-7.8 40.3h12.7c8.4 0 14.7-1.6 18.9-4.8 4.1-3.2 6.9-8.5 8.4-15.9 1.3-7.2.7-12.2-1.9-15.2z" fill-rule="evenodd"/><path d="m317.5 48.5c-5.7-13.6-10.5-25.4-5.8-33.6 1.8-2.5 3.8-3.8 6-3.8 4.5 0 8.6 4.9 8.6 4.9l5.7 6.9-3.6-8.2c-.2-.3-6.3-14.2-17.2-14.2-3.8 0-7.8 1.7-11.7 5.1l-.1.1c-9.5 11-.2 31.8 8.1 50.1l6.1 14.2c2.8 7.3 5.6 16 3.9 22.4-2.6 10-11.5 16.8-11.6 16.9l-5.7 4.4 6.9-2.2c.7-.2 16-5.2 19.7-18.5 2.3-10.9-.6-21.8-3.5-30.2.4-.3-.4.3 0 0l-5.3-13.7"/></g><path d="m334.4 9.9-7.1-7.8 5.1 9.3c.1.1 6.3 11.7-1.6 25.2-2.9 4.2-7.4 8.4-13.1 12.6l-10.3 6.7c-.1-.1-.1-.2 0 0l-.4.3c-11.5 6.6-22.2 10.6-22.4 10.7-15.9 7.1-25.9 18.1-27.3 30.3-1.1 9.2 3.2 18.2 11.6 24.5l.1.1c5.3 3.2 11 4.8 17 4.8 15.7 0 28-10.9 28.5-11.4l7.7-6.9-9.1 4.8c-.1 0-7.7 4-15.6 4-7.1 0-12.1-3.1-15.1-9.4-3.8-13.4 9.5-22.6 24.8-33.2 2-1.4 4.1-2.9 6.2-4.3l.1-.1 9.1-6.8c.1-.2.4-.4.4-.4 7.5-6.2 17.4-15.9 19.7-29.5 1.8-12.3-7.9-23-8.3-23.5z" fill="#0f0f0f"/><path d="m345.4 83h19.5l-3.5 17.7h-19.5z" fill="#fff"/><path d="m409.875 101c-6.579 0-12.24-1.09-16.983-3.27-4.715-2.2072-8.197-5.2319-10.445-9.0741-2.248-3.8695-2.947-8.3384-2.097-13.4069h20.19c-.274 1.8258-.013 3.4471.782 4.8641.822 1.3898 2.07 2.4797 3.742 3.27 1.7.7902 3.673 1.1853 5.921 1.1853 2.577 0 4.935-.5041 7.073-1.5123 2.166-1.0082 3.948-2.3571 5.346-4.0466s2.262-3.5425 2.591-5.5589c.329-1.962.027-3.6106-.905-4.9458-.932-1.3353-2.358-2.3435-4.277-3.0248-1.891-.6812-4.208-1.0218-6.949-1.0218h-8.595l2.385-14.3879h7.731c2.522 0 4.839-.4632 6.95-1.3897 2.138-.9265 3.906-2.2072 5.305-3.8422 1.398-1.635 2.275-3.5152 2.631-5.6407.275-1.6895.137-3.1609-.411-4.4144-.548-1.2808-1.508-2.2618-2.878-2.943-1.344-.7085-3.098-1.0627-5.264-1.0627-2.303 0-4.523.3951-6.662 1.1853-2.111.7903-3.892 1.9075-5.345 3.3517-1.453 1.4443-2.331 3.1201-2.632 5.0276h-19.327c.849-4.9594 2.933-9.333 6.25-13.1207 3.317-3.815 7.457-6.7988 12.419-8.9515 4.989-2.18 10.417-3.27 16.284-3.27 6.196 0 11.432 1.1581 15.708 3.4743 4.305 2.289 7.443 5.341 9.417 9.1559 2.002 3.7877 2.618 7.9161 1.851 12.385-.795 4.8777-2.961 8.6518-6.497 11.3223-3.537 2.6432-7.937 4.2918-13.2 4.9458v.6131c5.811.7085 10.253 2.9293 13.323 6.6625 3.098 3.706 4.208 8.2294 3.331 13.5704-.74 4.6052-2.81 8.7063-6.21 12.3032-3.399 3.597-7.744 6.4309-13.035 8.5019-5.264 2.0437-11.103 3.0656-17.518 3.0656z" fill="#fff"/></svg>

<svg width="451" height="127" viewBox="0 0 451 127" fill="none" xmlns="http://www.w3.org/2000/svg">
<path fill-rule="evenodd" clip-rule="evenodd" d="M21.8 125.8H0.799988L19.5 29.7H59.8C71.9 29.7 80.8 32.9 86.3 39.2C91.9 45.6 93.5 54.4 91.3 65.9C90.4 70.6 88.8 74.9 86.7 78.8C84.5 82.7 81.7 86.3 78.2 89.5C74 93.4 69.4 96.2 64.3 97.9C59.2 99.6 52.7 100.4 44.7 100.4H26.7L21.8 125.8ZM67.7 49.2C65 46.3 59.7 44.8 51.8 44.8H37.5L29.7 85.1H42.4C50.8 85.1 57.1 83.5 61.3 80.3C65.4 77.1 68.2 71.8 69.7 64.4C71 57.2 70.3 52.2 67.7 49.2Z" fill="white"/>
<path d="M106.6 4.1H127.4L122.4 29.7H140.9C152.6 29.7 160.6 31.7 165 35.8C169.4 39.9 170.8 46.5 169 55.6L160.3 100.4H139.2L147.5 57.8C148.4 53 148.1 49.7 146.5 47.9C144.9 46.1 141.4 45.3 136.1 45.3H119.5L108.8 100.4H87.9L106.6 4.1Z" fill="white"/>
<path fill-rule="evenodd" clip-rule="evenodd" d="M185.2 125.8H164.2L182.9 29.7H223.3C235.4 29.7 244.3 32.9 249.8 39.2C255.4 45.6 257 54.4 254.8 65.9C253.9 70.6 252.3 74.9 250.2 78.8C248 82.7 245.2 86.3 241.7 89.5C237.5 93.4 232.9 96.2 227.8 97.9C222.7 99.6 216.2 100.4 208.2 100.4H190.2L185.2 125.8ZM231.2 49.2C228.5 46.3 223.2 44.8 215.3 44.8H200.9L193.1 85.1H205.8C214.2 85.1 220.5 83.5 224.7 80.3C228.8 77.1 231.6 71.8 233.1 64.4C234.4 57.2 233.8 52.2 231.2 49.2Z" fill="white"/>
<path d="M317.5 48.5C311.8 34.9 307 23.1 311.7 14.9C313.5 12.4 315.5 11.1 317.7 11.1C322.2 11.1 326.3 16 326.3 16L332 22.9L328.4 14.7C328.2 14.4 322.1 0.5 311.2 0.5C307.4 0.5 303.4 2.2 299.5 5.6L299.4 5.7C289.9 16.7 299.2 37.5 307.5 55.8L313.6 70C316.4 77.3 319.2 86 317.5 92.4C314.9 102.4 306 109.2 305.9 109.3L300.2 113.7L307.1 111.5C307.8 111.3 323.1 106.3 326.8 93C329.1 82.1 326.2 71.2 323.3 62.8C323.7 62.5 322.9 63.1 323.3 62.8L318 49.1" fill="white"/>
<path d="M334.4 9.9L327.3 2.1L332.4 11.4C332.5 11.5 338.7 23.1 330.8 36.6C327.9 40.8 323.4 45 317.7 49.2L307.4 55.9C307.3 55.8 307.3 55.7 307.4 55.9L307 56.2C295.5 62.8 284.8 66.8 284.6 66.9C268.7 74 258.7 85 257.3 97.2C256.2 106.4 260.5 115.4 268.9 121.7L269 121.8C274.3 125 280 126.6 286 126.6C301.7 126.6 314 115.7 314.5 115.2L322.2 108.3L313.1 113.1C313 113.1 305.4 117.1 297.5 117.1C290.4 117.1 285.4 114 282.4 107.7C278.6 94.3 291.9 85.1 307.2 74.5C309.2 73.1 311.3 71.6 313.4 70.2L313.5 70.1L322.6 63.3C322.7 63.1 323 62.9 323 62.9C330.5 56.7 340.4 47 342.7 33.4C344.5 21.1 334.8 10.4 334.4 9.9Z" fill="#0F0F0F"/>
<path d="M345.4 83H364.9L361.4 100.7H341.9L345.4 83Z" fill="white"/>
<path d="M409.875 101C403.296 101 397.635 99.91 392.892 97.73C388.177 95.5228 384.695 92.4981 382.447 88.6559C380.199 84.7864 379.5 80.3175 380.35 75.249H400.54C400.266 77.0748 400.527 78.6961 401.322 80.1131C402.144 81.5029 403.392 82.5928 405.064 83.3831C406.764 84.1733 408.737 84.5684 410.985 84.5684C413.562 84.5684 415.92 84.0643 418.058 83.0561C420.224 82.0479 422.006 80.699 423.404 79.0095C424.802 77.32 425.666 75.467 425.995 73.4506C426.324 71.4886 426.022 69.84 425.09 68.5048C424.158 67.1695 422.732 66.1613 420.813 65.48C418.922 64.7988 416.605 64.4582 413.864 64.4582H405.269L407.654 50.0703H415.385C417.907 50.0703 420.224 49.6071 422.335 48.6806C424.473 47.7541 426.241 46.4734 427.64 44.8384C429.038 43.2034 429.915 41.3232 430.271 39.1977C430.546 37.5082 430.408 36.0368 429.86 34.7833C429.312 33.5025 428.352 32.5215 426.982 31.8403C425.638 31.1318 423.884 30.7776 421.718 30.7776C419.415 30.7776 417.195 31.1727 415.056 31.9629C412.945 32.7532 411.164 33.8704 409.711 35.3146C408.258 36.7589 407.38 38.4347 407.079 40.3422H387.752C388.601 35.3828 390.685 31.0092 394.002 27.2215C397.319 23.4065 401.459 20.4227 406.421 18.27C411.41 16.09 416.838 15 422.705 15C428.901 15 434.137 16.1581 438.413 18.4743C442.718 20.7633 445.856 23.8153 447.83 27.6302C449.832 31.4179 450.448 35.5463 449.681 40.0152C448.886 44.8929 446.72 48.667 443.184 51.3375C439.647 53.9807 435.247 55.6293 429.984 56.2833V56.8964C435.795 57.6049 440.237 59.8257 443.307 63.5589C446.405 67.2649 447.515 71.7883 446.638 77.1293C445.898 81.7345 443.828 85.8356 440.428 89.4325C437.029 93.0295 432.684 95.8634 427.393 97.9344C422.129 99.9781 416.29 101 409.875 101Z" fill="white"/>
</svg>
